!!!COM: Mozart, Wolfgang Amadeus
!!!CDT: 1756///-1791///
!!!CNT: Austrian
!!!OTL: 12 Variations on Ah vous dirai-je, maman
!!!OKY: C Major
!!!SCT: K 256
!!!SCT: K6 300e
!!!ODT: 1781-1782///
!!!OCY: Vienna
!!!ENC: Craig Sapp
!!!YEC: Copyright 2001 by Craig Stuart Sapp
!!!YEN: United States of America
!!!OMD: Variation 1
**kern	**kern
*lh	*rh
*Ipiano	*Ipiano
*k[]	*k[]
*C:	*C:
*M2/4	*M2/4
*MM120	*MM120
*>[A,A1,A,A2,B,B]	*>[A,A1,A,A2,B,B]
*>A	*>A
=1-	=1-
4C	16dd
.	16cc
.	16b
.	16cc
4c	16b
.	16cc
.	16b
.	16cc
=2	=2
4e	16aa
.	16gg
.	16ff#
.	16gg
4c	16ff#
.	16gg
.	16ff#
.	16gg
=3	=3
4f	16gg#
.	16aa
.	16ccc
.	16bb
4c	16ddd
.	16ccc
.	16bb
.	16aa
=4	=4
4e	16aa
.	16ggn
.	16eee
.	16ddd
8.r	16ccc
.	16bb
.	16aa
16c#	[16gg
=5	=5
4d	16gg]
.	16ff
.	16ddd
.	16ccc
8.r	16bb
.	16aa
.	16gg
16B	[16ff
=6	=6
4cn	16ff]
.	16ee
.	16ccc
.	16bb
8.r	16aa
.	16gg
.	16ff
16A	16ee
=7	=7
4F	8dd
.	8aa
4G	8gg
.	8b
=8	=8
*>A1	*>A1
8c	4cc
8G	.
8E	16r
.	16r
8G	16r
.	16r
=9:|!	=9:|!
*>A2	*>A2
4c	4cc
4C	4r
=10!|:	=10!|:
*>B	*>B
4e	16aa
.	16gg
.	16ff#
.	16gg
4G	16ff#
.	16gg
.	16aa
.	16gg
=11	=11
4d	16gg
.	16ffn
.	16ee
.	16ff
4G	16ee
.	16ff
.	16gg
.	16ff
=12	=12
4c	16ff
.	16ee
.	16dd#
.	16ee
4G	16dd#
.	16ee
.	16ff
.	16ee
=13	=13
4f	16ee
.	16ddn
.	16cc#
.	16dd
4G	16cc#
.	16dd
.	16ee
.	16dd
=14	=14
2G 2e	16aa
.	16gg
.	16ff#
.	16gg
.	16eee
.	16ccc
.	16aa
.	16gg
=15	=15
2G 2d	16gg
.	16ffn
.	16ee
.	16ff
.	16ddd
.	16bb
.	16gg
.	16ff
=16	=16
4G 4c	16ff
.	16ee
.	16dd#
.	16ee
8.r	16ccc
.	16gg
.	16ff
16c	16ee
=17	=17
*^	*
2G	8.e	8.gg
.	16c	16ee
.	4B	4ddn
*v	*v	*
=18	=18
4C	16dd
.	16cc
.	16b
.	16cc
4c	16b
.	16cc
.	16b
.	16cc
=19	=19
4e	16aa
.	16gg
.	16ff#
.	16gg
4c	16ff#
.	16gg
.	16ff#
.	16gg
=20	=20
4f	16gg#
.	16aa
.	16ccc
.	16bb
4c	16ddd
.	16ccc
.	16bb
.	16aa
=21	=21
4e	16aa
.	16ggn
.	16eee
.	16ddd
8.r	16ccc
.	16bb
.	16aa
16c#	[16gg
=22	=22
4d	16gg]
.	16ff
.	16ddd
.	16ccc
8.r	16bb
.	16aa
.	16gg
16B	[16ff
=23	=23
4cn	16ff]
.	16ee
.	16ccc
.	16bb
8.r	16aa
.	16gg
.	16ff
16A	16ee
=24	=24
4F	8dd
.	8aa
4G	8gg
.	8b
=25	=25
4c	4cc
4C	16r
.	16r
.	16r
.	16r
==:|!	==:|!
*-	*-
